symbols/web/lock/materialsymbolssharp/lock_wght100gradN25_48px.svg

<svg xmlns="http://www.w3.org/2000/svg" height="48" width="48"><path d="M10.6 41.4V18.7h6.15v-4.25q0-3.05 2.1-5.15 2.1-2.1 5.15-2.1 3.05 0 5.15 2.1 2.1 2.1 2.1 5.15v4.25h6.15v22.7Zm7.25-22.7h12.3v-4.25q0-2.6-1.775-4.375T24 8.3q-2.55 0-4.35 1.775-1.8 1.775-1.8 4.375ZM11.7 40.3h24.6V19.8H11.7ZM24 32.7q1.1 0 1.875-.775.775-.775.775-1.875 0-1.05-.775-1.85T24 27.4q-1.1 0-1.875.8-.775.8-.775 1.85 0 1.1.775 1.875.775.775 1.875.775Zm-12.3 7.6V19.8v20.5Z"/></svg>

<svg xmlns="http://www.w3.org/2000/svg" height="48" width="48"><path d="M10.6 41.4V18.7H16.75V14.45Q16.75 11.4 18.85 9.3Q20.95 7.2 24 7.2Q27.05 7.2 29.15 9.3Q31.25 11.4 31.25 14.45V18.7H37.4V41.4ZM17.85 18.7H30.15V14.45Q30.15 11.85 28.375 10.075Q26.6 8.3 24 8.3Q21.45 8.3 19.65 10.075Q17.85 11.85 17.85 14.45ZM11.7 40.3H36.3V19.8H11.7ZM24 32.7Q25.1 32.7 25.875 31.925Q26.65 31.15 26.65 30.05Q26.65 29 25.875 28.2Q25.1 27.4 24 27.4Q22.9 27.4 22.125 28.2Q21.35 29 21.35 30.05Q21.35 31.15 22.125 31.925Q22.9 32.7 24 32.7ZM11.7 40.3V19.8V40.3Z"/></svg>
